packages/dnb-ui-lib/assets/icons/document_add_medium.svg

<svg width="24" height="24" viewBox="0 0 24 24" fill="none" xmlns="http://www.w3.org/2000/svg">
<path d="M5 4.25C4.58579 4.25 4.25 4.58579 4.25 5C4.25 5.41421 4.58579 5.75 5 5.75V4.25ZM10.5 5.75C10.9142 5.75 11.25 5.41421 11.25 5C11.25 4.58579 10.9142 4.25 10.5 4.25V5.75ZM5 7.25C4.58579 7.25 4.25 7.58579 4.25 8C4.25 8.41421 4.58579 8.75 5 8.75V7.25ZM13.5 8.75C13.9142 8.75 14.25 8.41421 14.25 8C14.25 7.58579 13.9142 7.25 13.5 7.25V8.75ZM5 18.25C4.58579 18.25 4.25 18.5858 4.25 19C4.25 19.4142 4.58579 19.75 5 19.75V18.25ZM8.5 19.75C8.91421 19.75 9.25 19.4142 9.25 19C9.25 18.5858 8.91421 18.25 8.5 18.25V19.75ZM17.75 9C17.75 9.41421 18.0858 9.75 18.5 9.75C18.9142 9.75 19.25 9.41421 19.25 9H17.75ZM2.5 1.00001L2.5 1.75001L2.5 1.00001ZM12.5362 1V0.25H12.5362L12.5362 1ZM11 23.75C11.4142 23.75 11.75 23.4142 11.75 23C11.75 22.5858 11.4142 22.25 11 22.25V23.75ZM18.2634 7.22037L18.8359 6.73591L18.2634 7.22037ZM13.2996 1.35406L12.727 1.83851L12.727 1.83852L13.2996 1.35406ZM16.85 20.1001C16.85 20.5143 17.1858 20.8501 17.6 20.8501C18.0142 20.8501 18.35 20.5143 18.35 20.1001H16.85ZM18.35 15.1001C18.35 14.6859 18.0142 14.3501 17.6 14.3501C17.1858 14.3501 16.85 14.6859 16.85 15.1001H18.35ZM20.1 18.3501C20.5142 18.3501 20.85 18.0143 20.85 17.6001C20.85 17.1859 20.5142 16.8501 20.1 16.8501V18.3501ZM15.1 16.8501C14.6858 16.8501 14.35 17.1859 14.35 17.6001C14.35 18.0143 14.6858 18.3501 15.1 18.3501V16.8501ZM5 5.75H10.5V4.25H5V5.75ZM5 8.75H13.5V7.25H5V8.75ZM5 19.75H8.5V18.25H5V19.75ZM17.75 7.86631V9H19.25V7.86631H17.75ZM2.5 1.75001L12.5362 1.75L12.5362 0.25L2.5 0.250013L2.5 1.75001ZM2.5 23.75H11V22.25H2.5V23.75ZM0.75 2.00001V22H2.25V2.00001H0.75ZM18.8359 6.73591L13.8721 0.869602L12.727 1.83852L17.6908 7.70482L18.8359 6.73591ZM2.5 22.25C2.36193 22.25 2.25 22.1381 2.25 22H0.75C0.75 22.9665 1.5335 23.75 2.5 23.75V22.25ZM12.5362 1.75C12.6097 1.75 12.6795 1.78238 12.727 1.83851L13.8721 0.869602C13.5396 0.476638 13.051 0.25 12.5362 0.25V1.75ZM2.5 0.250013C1.5335 0.250014 0.75 1.03352 0.75 2.00001H2.25C2.25 1.86194 2.36193 1.75001 2.5 1.75001L2.5 0.250013ZM19.25 7.86631C19.25 7.45239 19.1033 7.05188 18.8359 6.73591L17.6908 7.70482C17.729 7.74996 17.75 7.80718 17.75 7.86631H19.25ZM22.475 17.6001C22.475 20.2925 20.2924 22.4751 17.6 22.4751V23.9751C21.1208 23.9751 23.975 21.1209 23.975 17.6001H22.475ZM17.6 22.4751C14.9076 22.4751 12.725 20.2925 12.725 17.6001H11.225C11.225 21.1209 14.0792 23.9751 17.6 23.9751V22.4751ZM12.725 17.6001C12.725 14.9077 14.9076 12.7251 17.6 12.7251V11.2251C14.0792 11.2251 11.225 14.0793 11.225 17.6001H12.725ZM17.6 12.7251C20.2924 12.7251 22.475 14.9077 22.475 17.6001H23.975C23.975 14.0793 21.1208 11.2251 17.6 11.2251V12.7251ZM18.35 20.1001V15.1001H16.85V20.1001H18.35ZM20.1 16.8501H15.1V18.3501H20.1V16.8501Z" fill="black"/>
</svg>

<svg width="24" height="24" viewBox="0 0 24 24" fill="none" xmlns="http://www.w3.org/2000/svg"><path d="M5 4.25a.75.75 0 000 1.5v-1.5zm5.5 1.5a.75.75 0 000-1.5v1.5zM5 7.25a.75.75 0 000 1.5v-1.5zm8.5 1.5a.75.75 0 000-1.5v1.5zM5 18.25a.75.75 0 000 1.5v-1.5zm3.5 1.5a.75.75 0 000-1.5v1.5zM17.75 9a.75.75 0 001.5 0h-1.5zM2.5 1v.75V1zm10.036 0V.25 1zM11 23.75a.75.75 0 000-1.5v1.5zm7.263-16.53l.573-.484-.573.484zM13.3 1.354l-.573.485.573-.485zM16.85 20.1a.75.75 0 001.5 0h-1.5zm1.5-5a.75.75 0 00-1.5 0h1.5zm1.75 3.25a.75.75 0 000-1.5v1.5zm-5-1.5a.75.75 0 000 1.5v-1.5zM5 5.75h5.5v-1.5H5v1.5zm0 3h8.5v-1.5H5v1.5zm0 11h3.5v-1.5H5v1.5zM17.75 7.866V9h1.5V7.866h-1.5zM2.5 1.75h10.036V.25H2.5v1.5zm0 22H11v-1.5H2.5v1.5zM.75 2v20h1.5V2H.75zm18.086 4.736L13.872.87l-1.145.969 4.964 5.866 1.145-.97zM2.5 22.25a.25.25 0 01-.25-.25H.75c0 .966.784 1.75 1.75 1.75v-1.5zm10.036-20.5a.25.25 0 01.191.089l1.145-.97A1.75 1.75 0 0012.536.25v1.5zM2.5.25A1.75 1.75 0 00.75 2h1.5a.25.25 0 01.25-.25V.25zm16.75 7.616a1.75 1.75 0 00-.414-1.13l-1.145.969a.25.25 0 01.059.161h1.5zm3.225 9.734a4.875 4.875 0 01-4.875 4.875v1.5a6.375 6.375 0 006.375-6.375h-1.5zM17.6 22.475a4.875 4.875 0 01-4.875-4.875h-1.5a6.375 6.375 0 006.375 6.375v-1.5zM12.725 17.6a4.875 4.875 0 014.875-4.875v-1.5a6.375 6.375 0 00-6.375 6.375h1.5zm4.875-4.875a4.875 4.875 0 014.875 4.875h1.5a6.375 6.375 0 00-6.375-6.375v1.5zm.75 7.375v-5h-1.5v5h1.5zm1.75-3.25h-5v1.5h5v-1.5z" fill="#000"/></svg>
